StripePaymentSheet/StripePaymentSheet/Resources/StripePaymentSheet.xcassets/PaymentMethods/icon-pm-paypal.imageset/icon-pm-paypal-color-dark.svg

<svg fill="none" height="16" viewBox="0 0 16 16" width="16" xmlns="http://www.w3.org/2000/svg"><path d="m12.9014 3.83762c.1936.06416.3733.13998.5393.22746.1951-1.24439-.0016-2.09166-.6745-2.85886-.7417-.84462-2.0805-1.20622-3.79358-1.20622h-4.97332c-.34994 0-.64844.254498-.70252.600722l-2.07151 13.130578c-.04083.2598.15959.4941.42151.4941h3.07042l.76963-4.88299-.02259.14508c.05461-.34569.34994-.60019.7004-.60019h1.45913c2.86573 0 5.10963-1.1638 5.76543-4.5306.0196-.09968.0366-.19671.0515-.29162-.166-.08748-.3457-.1633-.5393-.22746z" fill="#fff"/><path d="m12.7541 3.79149c-.1002-.02916-.2036-.05567-.3096-.07953-.1066-.02332-.2158-.044-.3282-.06203-.3934-.06362-.8245-.09385-1.2863-.09385h-3.89804c-.09596 0-.18716.02174-.26881.06098-.17974.08642-.31335.25662-.34569.46499l-.82925 5.25221-.02385.15323c.05461-.34569.34993-.60019.7004-.60019h1.45912c2.86572 0 5.10962-1.1638 5.76542-4.53061.0196-.09967.0361-.1967.0509-.29161-.1659-.08801-.3457-.1633-.5392-.22746-.0477-.0159-.097-.03128-.1469-.04613z" fill="#cae6f3"/><path d="m13.4402 4.06508c-.0149.09491-.0318.19193-.0509.29161-.6559 3.36733-2.8997 4.5306-5.76547 4.5306h-1.45912c-.35047 0-.64579.2545-.70041.6002l-.74705 4.73791-.21156 1.343c-.03552.2269.13945.4316.3685.4316h2.58793c.30646 0 .56679-.2227.61503-.5249l.02545-.1315.48726-3.0922.03129-.1696c.04771-.3033.30858-.526.61503-.526h.38705c2.50737 0 4.47017-1.018 5.04387-3.9638.2396-1.2306.1156-2.25814-.5186-2.98081-.1919-.21791-.43-.39871-.7083-.54611z" fill="#179bd7"/></svg>

<svg width="16" height="16" viewBox="0 0 16 16" fill="none" xmlns="http://www.w3.org/2000/svg">
<path d="M12.9014 3.83762C13.095 3.90178 13.2747 3.9776 13.4407 4.06508C13.6358 2.82069 13.4391 1.97342 12.7662 1.20622C12.0245 0.3616 10.6857 0 8.97262 0H3.9993C3.64936 0 3.35086 0.254498 3.29678 0.600722L1.22527 13.7313C1.18444 13.9911 1.38486 14.2254 1.64678 14.2254H4.7172L5.48683 9.34241L5.46424 9.48749C5.51885 9.1418 5.81418 8.8873 6.16464 8.8873H7.62377C10.4895 8.8873 12.7334 7.7235 13.3892 4.3567C13.4088 4.25702 13.4258 4.15999 13.4407 4.06508C13.2747 3.9776 13.095 3.90178 12.9014 3.83762Z" fill="white"/>
<path d="M12.7541 3.79149C12.6539 3.76233 12.5505 3.73582 12.4445 3.71196C12.3379 3.68864 12.2287 3.66796 12.1163 3.64993C11.7229 3.58631 11.2918 3.55608 10.83 3.55608H6.93196C6.836 3.55608 6.7448 3.57782 6.66315 3.61706C6.48341 3.70348 6.3498 3.87368 6.31746 4.08205L5.48821 9.33426L5.46436 9.48749C5.51897 9.1418 5.81429 8.8873 6.16476 8.8873H7.62388C10.4896 8.8873 12.7335 7.7235 13.3893 4.35669C13.4089 4.25702 13.4254 4.15999 13.4402 4.06508C13.2743 3.97707 13.0945 3.90178 12.901 3.83762C12.8533 3.82172 12.804 3.80634 12.7541 3.79149Z" fill="#CAE6F3"/>
<path d="M13.4402 4.06508C13.4253 4.15999 13.4084 4.25701 13.3893 4.35669C12.7334 7.72402 10.4896 8.88729 7.62383 8.88729H6.16471C5.81424 8.88729 5.51892 9.14179 5.4643 9.48749L4.71725 14.2254L4.50569 15.5684C4.47017 15.7953 4.64514 16 4.87419 16H7.46212C7.76858 16 8.02891 15.7773 8.07715 15.4751L8.1026 15.3436L8.58986 12.2514L8.62115 12.0818C8.66886 11.7785 8.92973 11.5558 9.23618 11.5558H9.62323C12.1306 11.5558 14.0934 10.5378 14.6671 7.592C14.9067 6.3614 14.7827 5.33386 14.1485 4.61119C13.9566 4.39328 13.7185 4.21248 13.4402 4.06508Z" fill="#179BD7"/>
</svg>
